X: 27
T:Untitled. HA.028
M:3/4
L:1/8
Q:100
S:Henry Atkinson's original MS,Hartburn,N'umberland,1694.
O:England
A:Hartburn,Northumberland
H:1/8
Z:vmp.Chris Partington.Jan.2004
K:G
G2|"cr"B3Bc2|dcded2|edefga|f2f2G2|!
BABcd2|edefg2|"NB"f4ef|g4||!
g2fefgab|a2a2d2|g2f2e2|d4B2|!
edefg2|fefga2|g2f2e2|e4(dc)|!
BABcde|d2d2G2|c2c3B|A2A2g2|!
fefga2|gfgab2|c2A3G|G4|]
W:NB=(f2e/2f/2) in MS
